img/icons/this/heart.svg

<svg width="41" height="38" viewBox="0 0 41 38" fill="none" xmlns="http://www.w3.org/2000/svg">
<path d="M20.2844 6.87012L18.4841 5.02762C14.2582 0.702621 6.50946 2.19512 3.7123 7.63262C2.39908 10.1901 2.10279 13.8826 4.50073 18.5951C6.81078 23.1326 11.6167 28.5676 20.2844 34.4876C28.9521 28.5676 33.7555 23.1326 36.0681 18.5951C38.466 13.8801 38.1722 10.1901 36.8565 7.63262C34.0593 2.19512 26.3106 0.700122 22.0847 5.02512L20.2844 6.87012ZM20.2844 37.5001C-18.2156 12.1701 8.43032 -7.59988 19.8425 2.85762C19.9931 2.99512 20.1413 3.13762 20.2844 3.28512C20.4261 3.13776 20.5735 2.99598 20.7263 2.86012C32.136 -7.60488 58.7844 12.1676 20.2844 37.5001Z" fill="#B692B2"/>
</svg>

<svg width="41" height="38" fill="none" xmlns="http://www.w3.org/2000/svg"><path d="M20.284 6.87l-1.8-1.842C14.258.703 6.51 2.195 3.712 7.633c-1.313 2.557-1.61 6.25.789 10.962 2.31 4.538 7.116 9.973 15.783 15.893 8.668-5.92 13.471-11.355 15.784-15.893 2.398-4.715 2.104-8.405.788-10.962C34.06 2.195 26.311.7 22.085 5.025l-1.8 1.845zm0 30.63c-38.5-25.33-11.854-45.1-.441-34.642.15.137.298.28.441.427.142-.147.29-.289.442-.425 11.41-10.465 38.058 9.308-.442 34.64z" fill="#B692B2"/></svg>
